!!!!SEGMENT: pl-sa--400-a-viii-40--005-001_pugnani-gaetano--trio-in-a.krn
!!!cenid: 17xx:2032
!!!COM: Pugnani, Gaetano
!!!COM-rismid: pe30002608
!!!CDT: 1731/11/27-1798/07/15
!!!CNT: Italian
!!!OPR: Trio in A
!!!OTL: 
!!!OMV: 001
!!!PDT:
!!!AGN: Secular
!!!SMS-siglum: PL-SA
!!!SMS-shelfmark: 400/A VIII 40
!!!SMS-shelfwork: 005-001 M
!!!SMS-variant:
!!!SMS-altvar:
!!!NIFC-rismid: 1001104668
!!!URL-scan: http://bc.bdsandomierz.pl/dlibra/publication/1703/edition/1671/content
!!!ONB-nifc: UWAGA: No 5to, pierwsza część (bez podanego tempa)
**kern	**kern	**kern
*part3	*part2	*part1
*staff3	*staff2	*staff1
*I"Baſso	*I"Violino 2do	*I"Violino 1mo
*I'b	*I'vl 2	*I'vl 1
*clefF4	*clefG2	*clefG2
*k[f#c#g#]	*k[f#c#g#]	*k[f#c#g#]
*A:	*A:	*A:
*M2/4	*M2/4	*M2/4
!LO:TX:t=P:problem:zgodnie z RISM "b part missing."	!	!
8ryy	8r	8a/
=1	=1	=1
*2\right	*2\right	*2\right
2ryy	4A/	(16.ee\LL
.	.	32cc#\K)
.	.	(16.dd\
.	.	32b\JJk)
.	8r	(16.cc#\LL
.	.	32a\K)
.	8B/	(16.g#\
.	.	32b\JJk)
=2	=2	=2
2ryy	4c#/	8.a/L
.	.	32g#/LL
.	.	32f#/JJJ
.	8r	8.e/L
.	8c#/	.
.	.	32a/LL
.	.	32e/JJJ
=3	=3	=3
2ryy	8d/L	16.f#/LL
.	.	32a/JJk
!	!	!LO:TX:t=P:problem:mixed beam
.	8c#/	16.e/LL
.	.	32ee\JJk
.	.	8qqff#/
.	8B/	4ddT\
.	8e/J	.
=4	=4	=4
2ryy	4A/	16.cc#\LL
.	.	32a\JJk
.	.	(16.g#\LL
.	.	32b\JJk)
.	8r	8a\
.	8a\	8r
=5	=5	=5
!	!LO:N:vis=32.	!
2ryy	(16.ee\LL	4A/
!	!LO:N:vis=16	!
.	32cc#\JJk)	.
!	!LO:N:vis=32	!
.	(16.dd\LL	.
!	!LO:N:vis=16.	!
.	32b\JJk)	.
!	!LO:N:vis=32	!
.	(16.cc#\LL	8r
!	!LO:N:vis=16.	!
.	32a\JJk)	.
!	!LO:N:vis=32	!
.	(16.g#/LL	8B/
!	!LO:N:vis=16.	!
.	32b/JJk)	.
=6	=6	=6
2ryy	8.a/L	4c#/
.	(32g#/LL	.
.	32f#/JJJ)	.
.	8e/L	8r
.	16.a/L	8c#/
.	32e/JJk	.
=7	=7	=7
2ryy	16f#/LL	8d/L
.	16a/JJ	.
!	!LO:TX:t=P:problem:mixed beam	!
.	16e/LL	8c#/
.	16ee\JJ	.
.	8qqff#/	.
.	4ddT\	8B/
.	.	8e/J
=8	=8	=8
2ryy	8cc#\L	4A/
.	16a\L	.
.	16b\JJ	.
.	8cc#\L	8r
.	8a\J	8ee\
=9	=9	=9
!	!	!LO:TX:t=P:problem:mixed beam
2ryy	8d/L	8ff#\L
.	8d/	8d/J
.	8d/	32ff#\LLL
.	.	32gg#\J
!	!	!LO:N:vis=8
.	.	16aa\JJ
.	8d/J	16.aa\LL
.	.	32ff#\JJk
!	!	!LO:LB:g=original
=10	=10	=10
2ryy	8c#/L	8ee\L
.	8c#/	8a\J
*	*	*Xbrackettup
!	!	!LO:TUP:a
.	8c#/	24r
.	.	24a\LL
.	.	24b\
.	8a/J	24cc#\
.	.	24dd\
.	.	24ee\JJ
=11	=11	=11
!	!LO:TX:t=P:problem:mixed beam	!
2ryy	8b\L	(8.dd\L
.	8b\	.
.	.	32cc#\LL
.	.	32dd\JJJ)
.	8g#/	(8ee\L
.	8e/J	8dd\J)
=12	=12	=12
!	!LO:TX:t=P:problem:mixed beam	!
2ryy	8A/L	16.cc#\LL
.	.	32ee\K
.	8B/	16.g#\
.	.	32b\JJk
.	8c#/	8a/
.	8ee\J	8r
!	!LO:LB:g=original	!
=13	=13	=13
!	!LO:TX:t=P:problem:mixed beam	!
2ryy	8ff#\L	8d/L
.	8f#/J	8d/
*	*Xtuplet	*
!	!LO:TUP:a:problem:klamra łukowa	!
.	24ff#\LL	8d/
.	24gg#\	.
.	24aa\JJ	.
.	16.aa\LL	8d/J
.	32gg#\JJk	.
=14	=14	=14
2ryy	(16ee\LL	8c#/L
.	16cc#\J)	.
.	8a\J	8c#/
.	24r	8c#/
!	!LO:TUP:a:problem:klamra łukowa	!
.	24a\LL	.
.	24b\	.
.	24cc#\	8a/J
.	24dd\	.
.	24ee\JJ	.
=15	=15	=15
2ryy	8.dd\L	8b/L
.	.	8b/
.	(32cc#\LL	.
.	32dd\JJJ)	.
.	8ee\L	8g#/
.	8dd\J	8e/J
=16	=16	=16
2ryy	8.cc#\L	8A/L
.	.	8A/
.	(32dd\LL	.
.	32ee\JJJ)	.
!	!LO:TUP:a:problem:klamra łukowa	!
.	28ff#\LL	8d/
.	28ee\	.
.	28dd\	.
.	28cc#\	.
.	.	8d#X/J
.	28b\	.
.	28a\	.
.	28g#\JJ	.
=17	=17	=17
!	!	!LO:TX:t=P:problem:mixed beam
.	8qqa/	.
2ryy	4g#/	8e/L
.	.	8ee\
.	4r	8ee\
.	.	8ee\J
=18	=18	=18
.	.	8qqff#/
2ryy	4B/	8ee\L
.	.	8dd#X\J
*	*	*Xtuplet
!	!	!LO:TUP:a:problem:klamra łukowa
.	4r	24dd#\LL
.	.	24ee\
.	.	24ff#\JJ
.	.	24ff#'\LL
.	.	24ff#'\
.	.	24ff#'\JJ
!	!	!LO:LB:g=original
=19	=19	=19
!	!LO:TX:t=P:problem:mixed beam	!
2ryy	8e/L	8ee\L
.	8ee\	8gg#\
.	8ee\	8gg#\
.	8ee\J	8gg#\J
=20	=20	=20
.	8qqff#/	8qqaa/
2ryy	8ee\L	8gg#\L
.	8dd#X\J	8ff#\J
!	!LO:TUP:a:problem:klamra łukowa	!LO:TUP:a:problem:klamra łukowa
.	24dd#\LL	24ff#\LL
.	24ee\	24gg#\
.	24ff#\JJ	24aa\JJ
.	24ff#'\LL	24aa'\LL
.	24ff#'\	24aa'\
.	24ff#'\JJ	24aa'\JJ
=21	=21	=21
.	8qqgg#/	8qqbb/
2ryy	8ff#\L	8aa\L
.	8ee\J	8gg#\J
.	4r	4r
=22	=22	=22
2ryy	4aa\	4ccc#\
.	24aa\LL	24ccc#\LL
.	24ff#\	24aa\
.	24gg#\JJ	24bb\JJ
.	24aa\LL	24ccc#\LL
.	24ff#\	24aa\
.	24aa\JJ	24ccc#\JJ
=23	=23	=23
2ryy	4gg#\	4bb\
!	!	!LO:TUP:a:problem:klamra łukowa
.	24gg#\LL	24bb\LL
.	24ee\	24gg#\
.	24ff#\JJ	24aa\JJ
!	!	!LO:TUP:a:problem:klamra łukowa
.	24gg#\LL	24bb\LL
.	24ee\	24gg#\
.	24gg#\JJ	24bb\JJ
!	!LO:LB:g=original	!
=24	=24	=24
2ryy	4ff#\	4aa\
!	!	!LO:TUP:a:problem:klamra łukowa
.	24ff#\LL	24aa\LL
.	24dd#X\	24ff#\
.	24ee\JJ	24gg#\JJ
!	!	!LO:TUP:a:problem:klamra łukowa
.	24ff#\LL	24aa\LL
.	24dd#\	24ff#\
.	24ff#\JJ	24aa\JJ
=25	=25	=25
!	!LO:TUP:a:problem:klamra łukowa	!LO:TUP:a:problem:klamra łukowa
2ryy	24ee\LL	24gg#\LL
.	24ff#\	24aa\
.	24gg#\JJ	24bb\JJ
.	24gg#'\LL	24bb'\LL
.	24gg#'\	24bb'\
.	24gg#'\JJ	24bb'\JJ
!	!LO:TUP:a:problem:klamra łukowa	!LO:TUP:a:problem:klamra łukowa
.	24dd#X\LL	24ff#\LL
.	24ee\	24gg#\
.	24ff#\JJ	24aa\JJ
.	24ff#'\LL	24aa'\LL
.	24ff#'\	24aa'\
.	24ff#'\JJ	24aa'\JJ
=26	=26	=26
!	!LO:TUP:a:problem:klamra łukowa	!LO:TUP:a:problem:klamra łukowa
2ryy	24ee\LL	24gg#\LL
.	24ff#\	24aa\
.	24gg#\JJ	24bb\JJ
.	24gg#'\LL	24bb'\LL
.	24gg#'\	24bb'\
.	24gg#'\JJ	24bb'\JJ
!	!LO:TUP:a:problem:klamra łukowa	!LO:TUP:a:problem:klamra łukowa
.	24dd#X\LL	24ff#\LL
.	24ee\	24gg#\
.	24ff#\JJ	24aa\JJ
.	24ff#'\LL	24aa'\LL
.	24ff#'\	24aa'\
.	24ff#'\JJ	24aa'\JJ
!	!	!LO:PB:g=original
=27	=27	=27
!	!LO:TX:t=P:problem:mixed beam	!
.	.	8qqaa/
2ryy	8ee\L	2gg#\
.	16.e/L	.
.	32d#X/JJk	.
.	16.e/LL	.
.	32f#/K	.
.	16.g#/	.
.	32a#X/JJk	.
=28	=28	=28
2ryy	8b/L	4ff#\
.	16b/L	.
.	16an/JJ	.
.	8g#/L	4r
.	8e/J	.
=29	=29	=29
2ryy	8A/L	(32cc#\LLL
.	.	32dd#X\
.	.	32ee\
.	.	32ff#\JJJ)
.	8A/	8ee|\
!	!	!LO:N:vis=16
.	8A/	(32cc#\LLL
!	!	!LO:N:vis=16
.	.	32dd#X\
!	!	!LO:N:vis=16
.	.	32ee\
!	!	!LO:N:vis=16
.	.	32ff#\JJJ)
.	8A/J	8ee|\
=30	=30	=30
.	.	8qqcc#/
!	!	!LO:N:vis=16.
2ryy	8G#/L	16b\LL
.	.	32a\L
.	.	32b\JJJ
.	8A/	16.cc#\LL
.	.	32a\JJk
.	8B/	16.g#/LL
.	.	32f#/K
!	!	!LO:N:vis=16
.	8B/J	16.e/
.	.	32d#X/JJk
=31	=31	=31
2ryy	16e'/LL	4e/
.	(16e/	.
.	16g#/	.
.	16e/JJ)	.
.	(16b\LL	4r
.	16g#\)	.
.	(16ee\	.
.	16b\JJ)	.
!	!LO:LB:g=original	!
=32	=32	=32
2ryy	(32cc#\LLL	8A/L
.	32dd#X\	.
.	32ee\	.
.	32ff#\JJJ)	.
.	8ee|\	8A/
!	!LO:N:vis=16	!
.	(32cc#\LLL	8A/
!	!LO:N:vis=16	!
.	32dd#\	.
!	!LO:N:vis=16	!
.	32ee\	.
!	!LO:N:vis=16	!
.	32ff#\JJJ)	.
.	8ee|\	8A/J
=33	=33	=33
.	8qqcc#/	.
2ryy	24b\LL	8G#/L
.	24a\	.
.	24b\JJ	.
.	16.cc#\LL	8A/
.	32a\JJk	.
.	16.g#/LL	8B/
.	32f#/K	.
.	16.e/	8B/J
.	32d#X/JJk	.
=34	=34	=34
!	!	!LO:TX:t=P:problem:mixed beam
2ryy	8e/L	16e/LL
.	.	16ee\JJ
.	8G#X/	16r
.	.	16b\
.	8A/	16cc#/LL
.	.	16a/
.	8B/J	16g#/
.	.	16f#/JJ
=35	=35	=35
!	!	!LO:TX:t=P:problem:mixed beam
2ryy	8c#/L	16e/LL
.	.	16ee\JJ
.	8G#/	16r
.	.	16b\
.	8A/	16cc#/LL
.	.	16a/
.	8B/J	16g#/
.	.	16f#/JJ
=36	=36	=36
2ryy	4e/	4e/ 4b 4ee
!	!LO:N:vis=8	!LO:N:vis=8
!	!LO:TX:t=P:problem:fermata na znaku repetycji	!LO:TX:t=P:problem:fermata na znaku repetycji
.	4r	4r
!	!	!LO:LB:g=original
=37:|!|:	=37:|!|:	=37:|!|:
*	*	*^
2ryy	8.g#/L	8.b/L	2e\
.	16a/Jk	16cc#/Jk	.
.	24g#/LL	24b/LL	.
.	24a/	24cc#/	.
.	24b/JJ	24ddn/JJ	.
.	24g#/LL	24b/LL	.
.	24a/	24cc#/	.
.	24b/JJ	24dd/JJ	.
*	*	*v	*v
=38	=38	=38
2ryy	4a\	8cc#\
.	.	24r
.	.	48cc#\LLL
.	.	48dd\
.	.	48ee\
.	.	96ff#\L
.	.	96gg#\JJJJ
!	!	!LO:TUP:a:problem:klamra łukowa
.	4r	24aa\LL
.	.	24gg#\
.	.	24ff#\
.	.	24ee\
.	.	24dd\
.	.	24cc#\JJ
=39	=39	=39
*	*	*^
2ryy	8.g#/L	8.b/L	2e\
.	16a/Jk	16cc#/Jk	.
!	!LO:TUP:b:problem:klamra łukowa	!	!
.	24g#/LL	24b/LL	.
.	24a/	24cc#/	.
.	24b/JJ	24ddn/JJ	.
!	!LO:TUP:b:problem:klamra łukowa	!	!
.	24g#/LL	24b/LL	.
.	24a/	24cc#/	.
.	24b/JJ	24dd/JJ	.
*	*	*v	*v
=40	=40	=40
2ryy	4a/	8cc#\
.	.	24r
.	.	48cc#\LLL
.	.	48dd\
.	.	48ee\
.	.	96ff#\L
.	.	96gg#\JJJJ
!	!	!LO:TUP:a:problem:klamra łukowa
.	8r	24aa\LL
.	.	24gg#\
.	.	24ff#\
.	8A/	24ee\
.	.	24dd\
.	.	24cc#\JJ
=41	=41	=41
.	.	8qqdd/
2ryy	8e/L	8cc#\L
.	16.e/L	8b\J
.	32d/JJk	.
.	8c#/L	4ee\
.	8B/J	.
!	!LO:LB:g=original	!
=42	=42	=42
2ryy	4A#X/	16.ee\LL
.	.	32cc#\K
.	.	16.a#X\
.	.	32cc#\JJk
!	!	!LO:TUP:a:problem:klamra łukowa
.	8r	24f#/LL
.	.	24a#X/
.	.	24b/
.	8f#/	24cc#/
.	.	24dd/
.	.	24ee/JJ
=43	=43	=43
!	!	!LO:TUP:a:problem:klamra łukowa
2ryy	8b\L	24dd\LL
.	.	24ee\
.	.	24ff#\JJ
.	8dd\J	24ff#'\LL
.	.	24ff#'\
.	.	24ff#'\JJ
!	!	!LO:LB:g=original
.	8a#X/L	24cc#\LL
.	.	24dd\
.	.	24ee\JJ
.	8f#/J	24ee'\LL
.	.	24ee'\
.	.	24ee'\JJ
=44	=44	=44
2ryy	4b\	24ee\LL
.	.	24cc#\
.	.	24dd\JJ
.	.	8dd\
.	4dd\	8b\L
.	.	8a\J
=45	=45	=45
!	!LO:N:vis=16	!
.	.	8qqa/
2ryy	16.dd\LL	4g#/
.	32b\K	.
.	16.g#\	.
.	32b\JJk	.
!	!LO:TUP:b:problem:klamra łukowa	!
.	24e/LL	8r
.	24g#/	.
.	24a/	.
.	24b/	8e/
.	24cc#/	.
.	24dd/JJ	.
=46	=46	=46
!	!LO:TUP:a:problem:klamra łukowa	!
2ryy	24cc#\LL	8a\L
.	24dd\	.
.	24ee\JJ	.
.	24dd'\LL 24ff#	8cc#\J
.	24dd'\ 24ff#	.
.	24dd'\JJ 24ff#	.
!	!LO:TUP:a:problem:klamra łukowa	!
.	24b\LL	8g#/L
.	24cc#\	.
.	24dd\JJ	.
.	24dd'\LL	8e/J
.	24dd'\	.
.	24dd'\JJ	.
=47	=47	=47
2ryy	8.cc#\L	8a/L
.	.	8a/
.	16ee\Jk	.
.	8qee/	.
.	16.dd\LL	8f#/
.	32cc#\K	.
.	16.b\	8f#/J
.	32a#X\JJk	.
=48	=48	=48
!	!LO:SIC:v:s=8qa#	!
.	8qqa/	.
2ryy	8.b\L	8g#/L
.	.	8g#/
.	16dd\Jk	.
.	8qdd/	.
.	16.cc#\LL	8e#X/
.	32b\K	.
.	16.a\	8e#/J
.	32g#\JJk	.
=49	=49	=49
2ryy	8.a/L	8f#/L
.	.	8f#/
.	32b/LL	.
.	32cc#/JJJ	.
.	24dd\LL	8B#X/
.	24cc#\	.
.	24b\JJ	.
.	24a/LL	8B#/J
.	24g#/	.
!	!LO:TX:t=P:problem:16g# poprawione na 16f#	!
.	24f#/JJ	.
=50	=50	=50
!	!	!LO:TX:t=P:problem:mixed beam
2ryy	16.e#X\LL	8c#/L
.	32cc#\K	.
!	!	!LO:N:vis=8
.	16.ee#X\	16r
.	.	16gg#\Jk
.	32cc#\JJk	.
!	!LO:PB:g=original	!
.	16.ee#\LL	4gg#t\
.	32cc#\K	.
.	16.ee#\	.
.	32cc#\JJk	.
=51	=51	=51
2ryy	16.ff#\LL	8aa\L
!	!LO:N:vis=16	!
.	32cc#\K	.
.	16.aa\	8ccc#\J
.	32gg#\JJk	.
.	16.ff#\LL	8r
.	32cc#\K	.
.	16.a\	8ff#\
.	32g#\JJk	.
=52	=52	=52
!	!LO:TX:t=P:problem:mixed beam	!
2ryy	16.c#/LL	8ee#X\L
.	32cc#\K	.
.	16.ee#X\	16.cc#\L
.	32cc#\JJk	32gg#\JJk
.	16.ee#X\LL	4gg#t\
.	32cc#\K	.
.	16.ee#\	.
.	32cc#\JJk	.
=53	=53	=53
2ryy	16ff#'\LL	4aa\
.	16ff#'\	.
.	16ff#'\	.
.	16ff#'\JJ	.
.	16een'\LL	4aa#X\
.	16ee'\	.
.	16ee'\	.
.	16ee'\JJ	.
!	!	!LO:LB:g=original
=54	=54	=54
2ryy	(16.dd#X\LL	8.bb\L
.	32b\K)	.
.	(16.dd#\	.
.	.	16aan\Jk
.	32b\JJk)	.
.	(16.dd#\LL	4aaT\
.	32b\K)	.
.	(16.dd#\	.
.	32b\JJk)	.
=55	=55	=55
2ryy	(16.ee\LL	8gg#\L
.	32b\K)	.
.	(16.gg#\	8bb\J
.	32ff#\JJk)	.
.	(16.ee/LL	8r
.	32b/K)	.
.	(16.g#/	8ee\
.	32e/JJk)	.
=56	=56	=56
!	!LO:TX:t=P:problem:mixed beam	!
2ryy	16.B/LL	8dd#X\L
.	32b\K	.
.	16.dd#X\	16.b\L
.	32b\JJk	32ff#\JJk
.	(16.dd#\LL	4ff#T\
.	32b\K)	.
.	(16.dd#\	.
.	32b\JJk)	.
=57	=57	=57
2ryy	16ee\LL	4ggn\
.	16ee\	.
.	16ee\	.
.	16ee\JJ	.
.	16ddn\LL	4gg#X\
.	16dd\	.
.	16dd\	.
.	16dd\JJ	.
=58	=58	=58
2ryy	16.cc#\LL	8.aa\L
.	32a\K	.
.	16.cc#\	.
.	.	16ggn\Jk
.	32a\JJk	.
.	16.cc#\LL	4ggT\
.	32a\K	.
.	16.cc#\	.
.	32a\JJk	.
=59	=59	=59
!	!	!LO:TUP:a:problem:klamra łukowa
2ryy	24dd\LL	24ff#\LL
.	24b\	24dd\
.	24dd\JJ	24ff#\JJ
.	8cc#\	8ee\
!	!	!LO:TUP:a:problem:klamra łukowa
.	24b\LL	24dd\LL
.	24g#\	24b\
.	24b\JJ	24dd\JJ
.	8a\	8cc#\
=60	=60	=60
*	*	*^
2ryy	8.g#/L	8.b/L	2e\
.	16a/Jk	16cc#/Jk	.
!	!LO:TUP:b:problem:klamra łukowa	!	!
.	24g#/LL	24b/LL	.
.	24a/	24cc#/	.
.	24b/JJ	24dd/JJ	.
!	!LO:TUP:b:problem:klamra łukowa	!	!
.	24g#/LL	24b/LL	.
.	24a/	24cc#/	.
.	24b/JJ	24dd/JJ	.
*	*	*v	*v
=61	=61	=61
2ryy	4a/	8cc#\
.	.	24r
!	!	!LO:TX:t=P:problem:uwaga na rytm
!	!	!LO:TUP:a:problem:klamra łukowa
.	.	48cc#\LLL
.	.	48dd\
.	.	48ee\
.	.	96ff#\L
.	.	96gg#\JJJJ
!	!	!LO:TUP:a:problem:klamra łukowa
.	4r	24aa\LL
.	.	24gg#\
.	.	24ff#\
.	.	24ee\
.	.	24dd\
.	.	24cc#\JJ
!	!LO:LB:g=original	!
=62	=62	=62
*	*	*^
!	!	!LO:TX:t=P:problem:t. 62-63 zapisane repetycją	!
2ryy	8.g#/L	8.b/L	2e\
.	16a/Jk	16cc#/Jk	.
!	!LO:TUP:b:problem:klamra łukowa	!	!
.	24g#/LL	24b/LL	.
.	24a/	24cc#/	.
.	24b/JJ	24dd/JJ	.
!	!LO:TUP:b:problem:klamra łukowa	!	!
.	24g#/LL	24b/LL	.
.	24a/	24cc#/	.
.	24b/JJ	24dd/JJ	.
*	*	*v	*v
=63	=63	=63
2ryy	4a/	8cc#\
.	.	24r
!	!	!LO:TX:t=P:problem:uwaga na rytm
!	!	!LO:TUP:a:problem:klamra łukowa
.	.	48cc#\LLL
.	.	48dd\
.	.	48ee\
.	.	96ff#\L
.	.	96gg#\JJJJ
!	!	!LO:TUP:a:problem:klamra łukowa
.	16r	24aa\LL
.	.	24gg#\
.	(16cc#\LL	.
.	.	24ff#\
.	16b\	24ee\
.	.	24dd\
.	16a\JJ)	.
.	.	24cc#\JJ
=64	=64	=64
*	*	*^
2ryy	8aT/L	8cc#/L	4e\
.	8g#/J	8b/J	.
.	4r	8r	4ryy
.	.	8a/	.
*	*	*v	*v
!	!	!LO:LB:g=original
=65	=65	=65
2ryy	4A/	16.ee\LL
.	.	32cc#\K
.	.	16.dd\
.	.	32b\JJk
.	8r	16.cc#\LL
.	.	32a\K
.	8B/	16.g#X\
.	.	32b\JJk
=66	=66	=66
2ryy	4c#/	8.a/L
.	.	32g#/LL
.	.	32f#/JJJ
.	8r	16e/LL
.	.	16d/
.	8a\	16c#/
.	.	16B/JJ
=67	=67	=67
2ryy	(16.ee\LL	4A/
.	32cc#\K)	.
.	(16.dd\	.
.	32b\JJk)	.
.	(16.cc#\LL	8r
.	32a\K)	.
.	(16.g#\	8B/
.	32b\JJk)	.
=68	=68	=68
!	!	!LO:TX:t=P:problem:mixed beam
2ryy	16A/LL	8c#/L
.	16a/	.
!	!	!LO:N:vis=8
.	16cc#/	16r
.	16ee/JJ	16ggn\Jk
.	16ee\LL	(16gg\LL
.	16dd\	16ff#\)
.	16dd\	(16ff#\
.	16cc#\JJ	16ee\JJ)
=69	=69	=69
!	!	!LO:N:vis=8.
2ryy	16dd\LL	8ff#\L
.	16ff#\	.
!	!	!LO:N:vis=8
.	16dd#X\	16r
.	16ff#\JJ	16aa\Jk
.	(16ff#\LL	(16aa\LL
.	16ee\)	16gg#\)
.	16ee\	(16gg#\
.	16dd#\JJ	16ff#\JJ)
=70	=70	=70
*	*	*^
2ryy	8ee\	8gg#\L	2e\
.	16r	16r	.
.	16g#/	16b\Jk	.
!	!LO:TUP:b:problem:klamra łukowa	!	!
.	24g#/LL	24b/LL	.
.	24a/	24cc#/	.
.	24b/JJ	24dd/JJ	.
!	!LO:TUP:b:problem:klamra łukowa	!	!
.	24g#/LL	24b/LL	.
.	24a/	24cc#/	.
.	24b/JJ	24dd/JJ	.
=71	=71	=71	=71
2ryy	8a\L	8cc#/L	8e\
.	8cc#\	16ee/L	8ryy
.	.	16e/JJ	.
.	8b\	16dd/LL	4ryy
.	.	16e/J	.
.	8a\J	8cc#/J	.
=72	=72	=72	=72
2ryy	8g#/L	8b/L	8e\
.	16r	16r	8ryy
.	16g#/Jk	16b/Jk	.
!	!LO:TUP:b:problem:klamra łukowa	!LO:TUP:b:problem:klamra łukowa	!
.	24g#/LL	24b/LL	8e\L
.	24a/	24cc#/	.
.	24b/JJ	24dd/JJ	.
!	!LO:TUP:b:problem:klamra łukowa	!LO:TUP:b:problem:klamra łukowa	!
.	24g#/LL	24b/LL	8e\J
.	24a/	24cc#/	.
.	24b/JJ	24dd/JJ	.
*	*	*v	*v
!	!	!LO:LB:g=original
=73	=73	=73
2ryy	4a/	8cc#\L
.	.	8a'\
.	4r	8a'\
.	.	8a'\J
=74	=74	=74
.	.	8qqb/
2ryy	4e/	8a\L
.	.	8g#\J
.	4r	24g#/LL
.	.	24a/
.	.	24b/JJ
.	.	24b'\LL
.	.	24b'\
.	.	24b'\JJ
!	!LO:LB:g=original	!
=75	=75	=75
2ryy	8A/L	8a\L
.	8a/	8cc#\
.	8a/	8cc#\
.	8a/J	8cc#\J
=76	=76	=76
.	.	8qqdd/
2ryy	8a/L	8cc#\L
.	8g#/J	8b\J
!	!LO:TUP:b:problem:klamra łukowa	!LO:TUP:a:problem:klamra łukowa
.	24g#/LL	24b\LL
.	24a/	24cc#\
.	24b/JJ	24dd\JJ
.	24b'/LL	24dd'\LL
.	24b'/	24dd'\
.	24b'/JJ	24dd'\JJ
=77	=77	=77
.	8qcc#/	8qqee/
2ryy	8b/L	8dd\L
.	16a/L	8cc#\J
.	16A/JJ	.
.	16c#/LL	4r
.	16A/	.
.	16c#/	.
.	16A/JJ	.
=78	=78	=78
2ryy	8d/L	(32ff#\LLL
.	.	32gg#\
.	.	32aa\
.	.	32bb\JJJ)
.	8d/	8aa|\
.	8d/	(32ff#\LLL
.	.	32gg#\
.	.	32aa\
.	.	32bb\JJJ)
.	8d/J	8aa\
=79	=79	=79
.	.	8qff#/
2ryy	8c#/L	16ee\LL
.	.	32dd\L
.	.	32ee\JJJ
.	8d/	16.ff#\LL
.	.	32dd\JJk
.	8e/	16.cc#/LL
.	.	32b/K
.	8e/J	16.a/
.	.	32g#/JJk
=80	=80	=80
.	.	8qqg#/
2ryy	(16A/LL	4a/
.	16a/)	.
.	(16cc#/	.
.	16a/JJ)	.
.	(16ee\LL	4r
.	16cc#\)	.
.	(16aa\	.
.	16ee\JJ)	.
=81	=81	=81
2ryy	(32ff#\LLL	8d/L
.	32gg#\	.
.	32aa\	.
.	32bb\JJJ)	.
.	8aa\	8d/
.	(32ff#\LLL	8d/
.	32gg#\	.
.	32aa\	.
.	32bb\JJJ)	.
.	8aa\	8d/J
=82	=82	=82
.	8qff#/	.
2ryy	16ee\LL	8c#/L
.	32dd\L	.
.	32ee\JJJ	.
.	16.ff#\LL	8d/
.	32dd\JJk	.
.	16.cc#\LL	8e/
.	32b\K	.
.	16.a\	8f#/J
.	32g#\JJk	.
!	!	!LO:LB:g=original
=83	=83	=83
2ryy	8a/L	16a\LL
.	.	16aa\JJ
.	8c#/	16r
.	.	16ee\
.	8d/	16ff#\LL
.	.	16dd\
.	8e/J	16cc#\
.	.	16b\JJ
=84	=84	=84
2ryy	8f#/L	16a\LL
.	.	16aa\JJ
.	8c#/	16r
.	.	16ee\
.	8d/	16ff#\LL
.	.	16dd\
.	8e/J	16cc#\
.	.	16b\JJ
=85	=85	=85
2ryy	4A/	4A/ 4e 4a
!	!LO:TX:t=P:problem:fermata na znaku repetycji	!LO:TX:t=P:problem:fermata na znaku repetycji
!	!LO:N:vis=8	!LO:N:vis=8
.	4r	4r
=:|!	=:|!	=:|!
*-	*-	*-
!!!system-decoration: [(s1,s2,s3)]
!!!RDF**kern: > = above
!!!RDF**kern: < = below
!!!RDF**kern: | = vertical stroke
!!!RDF**kern: i = editorial accidental
!!!ENC: Katarzyna Serwa
!!!END: 2021-10-29
!!!ENC: Katarzyna Serwa
!!!END: 2021-05-28
